X:267
T:Rolling down the hill
R:Reel
O:Ireland
B:Krassen O'Neill's p152
B:O'Neill's 1508
S:O'Neill's 1508
Z:Transcription:John B. Walsh, arrangement, chords:Mike Long
M:C|
L:1/8
K:G
"Am"e2(cA) e2(cA)|"G"BGEF G2GB|\
"Am"AGAB cBcd|"G"efge dgfg|\
"Am"e2(cA) Acec|"G"dcBA G2(GB)|
"Am"AGAB cBcd|"G"eage d2(cd)|]\
"C"eg~g2 eg~g2|"Am"ea~a2 ea~a2|\
"C"eg~g2 eg~g2|
"Am"afge "G"d2cd|\
"C"eg~g2 eg~g2|"Am"ea~a2 ea~a2|\
"C/Em"edcB "Am"cdef|"G"{a}gfge dgfg|]
